X:76
T:The Highland Fling
B:Terry "Cuz" Teahan "Sliabh Luachra on Parade" 1980
Z:Patrick Cavanagh
M:4/4
L:1/8
R:Highland
K:G
| D2DE GABA | GEEA GEGE | D2DE GAB2 | dedB A2G2 :| 
| d2dc Bcd2 | e2ed cde2 | d2dc Bcd2 | dedB A2G2 :|| 

